X:1
T:Old Woman Lamenting Her Purse, The
L:1/8
M:6/8
I:linebreak $
K:G
V:1 treble 
V:1
 B | BAA AGA | BGG (G2 A) | BAA ABd | (e/f/ge) edB | BAA AGA | BGG (G2 D) | EGG (G2 B) |$ %8
 (d2 e) edB :: def (g2 g) | faf (g2 g) | def (g2 g) | (f/g/a)e fga | .b.b.b .a.a.a | g>ee edB |$ %15
 BAA ABd | e>fe edB :| %17
